X:236
T:B236-  In Summer Time (Pills tune)
Q:1/4=120
L:1/4
M:3/4
K:G
GGG|d2c|BAB|c2d|\
(c/2B/2)AG|ABc|A(G2|G3):|\
dde|fde|fg2|gfe|dcd|\
fed|dde|f2e|dcB|c2d|\
(c/2B/2)AG|ABc|(B/2A/2)(G2|G3)|]
